X:1
T:My Bonnie Lies Over the Ocean
M:3/4
L:1/4
K:C
 G| e d c| d c A| G E2-| E z G| e d c| c B c| d3-| d z G| e d c| d c A|\
 G E2-| E z G| A d c| B A B| c3-| c2 z| G3| c3| A3| d2 c| B B B| B A B|\
 c2 d| e3| G3| c3| A3| d2 c| B B B| B A B| c3-| c2||
